;FLAVOR:Marlin
;TIME:152
;Filament used: 0.086885m
;Layer height: 0.2
;MINX:94
;MINY:94
;MINZ:0.2
;MAXX:126
;MAXY:126
;MAXZ:20
;Generated with Cura_SteamEngine 4.3.0
M140 S0
M105
M190 S0
M104 S0
M105
M109 S0
M82 ;absolute extrusion mode
M201 X500.00 Y500.00 Z100.00 E5000.00 ;Setup machine max acceleration
M203 X500.00 Y500.00 Z10.00 E50.00 ;Setup machine max feedrate
M204 P500.00 R1000.00 T500.00 ;Setup Print/Retract/Travel acceleration
M205 X8.00 Y8.00 Z0.40 E5.00 ;Setup Jerk
M220 S100 ;Reset Feedrate
M221 S100 ;Reset Flowrate

G28 ;Home

G92 E0 ;Reset Extruder
G1 Z20 F3000 ;Move Z Axis up
G1 X10.1 Y20 Z0.28 F5000.0 ;Move to start position
G1 X10.1 Y200.0 Z0.28 F1500.0 E15 ;Draw the first line
G1 X10.4 Y200.0 Z0.28 F5000.0 ;Move to side a little
G1 X10.4 Y20 Z0.28 F1500.0 E30 ;Draw the second line
G92 E0 ;Reset Extruder
G1 Z20 F3000 ;Move Z Axis up

G92 E0
G92 E0
G1 F2700 E-5
;LAYER_COUNT:10
;LAYER:0
M107
G0 F6000 X97.198 Y97.264
G0 F3000 Z0.2
;TYPE:SKIRT
G1 F2700 E0
G1 F1200 X97.886 Y96.627 E0.03119
G1 X98.626 Y96.051 E0.06237
G1 X99.412 Y95.539 E0.09357
G1 X100.239 Y95.097 E0.12476
G1 X101.101 Y94.727 E0.15596
G1 X101.991 Y94.431 E0.18716
G1 X102.903 Y94.213 E0.21835
G1 X103.83 Y94.072 E0.24953
G1 X104.701 Y94.013 E0.27857
G1 X105.022 Y94.004 E0.28925
G1 X105.33 Y94 E0.29949
G1 X114.293 Y94 E0.59761
G1 X114.451 Y94.001 E0.60286
G1 X115.149 Y94.011 E0.62608
G1 X116.085 Y94.065 E0.65726
G1 X117.013 Y94.197 E0.68844
G1 X117.927 Y94.409 E0.71964
G1 X118.819 Y94.698 E0.75083
G1 X119.684 Y95.061 E0.78203
G1 X120.514 Y95.497 E0.81321
G1 X121.305 Y96.002 E0.84443
G1 X122.049 Y96.573 E0.87562
G1 X122.742 Y97.205 E0.90682
G1 X123.379 Y97.893 E0.938
G1 X123.954 Y98.634 E0.9692
G1 X124.465 Y99.42 E1.00038
G1 X124.907 Y100.248 E1.0316
G1 X125.276 Y101.11 E1.06278
G1 X125.571 Y102 E1.09397
G1 X125.789 Y102.912 E1.12516
G1 X125.929 Y103.84 E1.15637
G1 X125.987 Y104.701 E1.18507
G1 X125.996 Y105.021 E1.19572
G1 X126 Y105.33 E1.206
G1 X126 Y114.264 E1.50314
G1 X125.999 Y114.4 E1.50767
G1 X125.99 Y115.127 E1.53185
G1 X125.939 Y116.064 E1.56306
G1 X125.807 Y116.992 E1.59424
G1 X125.598 Y117.906 E1.62542
G1 X125.311 Y118.799 E1.65662
G1 X124.949 Y119.665 E1.68784
G1 X124.515 Y120.496 E1.71902
G1 X124.011 Y121.287 E1.75021
G1 X123.442 Y122.032 E1.78139
G1 X122.811 Y122.727 E1.81261
G1 X122.124 Y123.365 E1.8438
G1 X121.385 Y123.942 E1.87498
G1 X120.599 Y124.454 E1.90618
G1 X119.773 Y124.897 E1.93736
G1 X118.911 Y125.269 E1.96858
G1 X118.022 Y125.565 E1.99975
G1 X117.11 Y125.785 E2.03095
G1 X116.183 Y125.926 E2.06214
G1 X115.299 Y125.987 E2.09161
G1 X114.978 Y125.996 E2.10229
G1 X114.67 Y126 E2.11253
G1 X105.707 Y126 E2.41064
G1 X105.565 Y125.999 E2.41537
G1 X104.867 Y125.99 E2.43859
G1 X103.931 Y125.938 E2.46976
G1 X103.002 Y125.806 E2.50097
G1 X102.088 Y125.596 E2.53217
G1 X101.195 Y125.309 E2.56336
G1 X100.33 Y124.946 E2.59456
G1 X99.499 Y124.512 E2.62575
G1 X98.708 Y124.008 E2.65694
G1 X97.963 Y123.438 E2.68814
G1 X97.269 Y122.807 E2.71934
G1 X96.632 Y122.12 E2.7505
G1 X96.055 Y121.38 E2.78171
G1 X95.543 Y120.594 E2.81291
G1 X95.1 Y119.767 E2.84411
G1 X94.729 Y118.906 E2.87529
G1 X94.433 Y118.016 E2.90649
G1 X94.214 Y117.104 E2.93769
G1 X94.073 Y116.177 E2.96887
G1 X94.013 Y115.288 E2.99851
G1 X94.004 Y114.955 E3.00959
G1 X94 Y114.658 E3.01947
G1 X94 Y105.674 E3.31828
G1 X94.001 Y105.525 E3.32323
G1 X94.01 Y104.86 E3.34535
G1 X94.063 Y103.924 E3.37653
G1 X94.195 Y102.995 E3.40774
G1 X94.406 Y102.081 E3.43894
G1 X94.694 Y101.189 E3.47012
G1 X95.057 Y100.324 E3.50132
G1 X95.492 Y99.493 E3.53251
G1 X95.996 Y98.703 E3.56368
G1 X96.566 Y97.958 E3.59488
G1 X97.198 Y97.264 E3.6261
G0 F6000 X97.589 Y97.439
G1 F1200 X98.274 Y96.823 E3.65674
G1 X99.01 Y96.27 E3.68736
G1 X99.791 Y95.782 E3.71799
G1 X100.611 Y95.364 E3.7486
G1 X101.465 Y95.019 E3.77924
G1 X102.345 Y94.749 E3.80985
G1 X103.245 Y94.557 E3.84046
G1 X104.159 Y94.443 E3.8711
G1 X104.712 Y94.413 E3.88952
G1 X105.033 Y94.404 E3.9002
G1 X105.33 Y94.4 E3.91008
G1 X114.293 Y94.4 E4.20819
G1 X114.445 Y94.401 E4.21324
G1 X115.143 Y94.411 E4.23646
G1 X116.062 Y94.464 E4.26708
G1 X116.973 Y94.597 E4.2977
G1 X117.869 Y94.808 E4.32831
G1 X118.743 Y95.096 E4.35892
G1 X119.59 Y95.459 E4.38957
G1 X120.401 Y95.894 E4.42018
G1 X121.171 Y96.398 E4.45079
G1 X121.895 Y96.967 E4.48142
G1 X122.567 Y97.597 E4.51205
G1 X123.182 Y98.282 E4.54267
G1 X123.735 Y99.018 E4.57329
G1 X124.222 Y99.799 E4.6039
G1 X124.639 Y100.62 E4.63453
G1 X124.984 Y101.474 E4.66516
G1 X125.253 Y102.354 E4.69577
G1 X125.445 Y103.255 E4.72641
G1 X125.558 Y104.168 E4.75701
G1 X125.587 Y104.712 E4.77513
G1 X125.596 Y105.032 E4.78578
G1 X125.6 Y105.33 E4.79569
G1 X125.6 Y114.264 E5.09283
G1 X125.599 Y114.395 E5.09719
G1 X125.59 Y115.122 E5.12137
G1 X125.539 Y116.041 E5.15199
G1 X125.408 Y116.953 E5.18263
G1 X125.198 Y117.849 E5.21324
G1 X124.912 Y118.724 E5.24386
G1 X124.551 Y119.571 E5.27448
G1 X124.117 Y120.383 E5.3051
G1 X123.615 Y121.155 E5.33573
G1 X123.047 Y121.88 E5.36636
G1 X122.419 Y122.553 E5.39698
G1 X121.735 Y123.169 E5.4276
G1 X121 Y123.723 E5.45821
G1 X120.22 Y124.212 E5.48883
G1 X119.4 Y124.631 E5.51946
G1 X118.547 Y124.977 E5.55007
G1 X117.667 Y125.248 E5.5807
G1 X116.767 Y125.441 E5.61131
G1 X115.853 Y125.556 E5.64195
G1 X115.288 Y125.587 E5.66077
G1 X114.967 Y125.596 E5.67145
G1 X114.67 Y125.6 E5.68133
G1 X105.707 Y125.6 E5.97944
G1 X105.57 Y125.599 E5.984
G1 X104.872 Y125.59 E6.00722
G1 X103.953 Y125.538 E6.03783
G1 X103.042 Y125.407 E6.06844
G1 X102.146 Y125.197 E6.09905
G1 X101.271 Y124.91 E6.12968
G1 X100.424 Y124.548 E6.16032
G1 X99.612 Y124.114 E6.19094
G1 X98.841 Y123.612 E6.22154
G1 X98.116 Y123.044 E6.25217
G1 X97.443 Y122.415 E6.28281
G1 X96.828 Y121.731 E6.3134
G1 X96.274 Y120.996 E6.34402
G1 X95.786 Y120.215 E6.37465
G1 X95.367 Y119.395 E6.40527
G1 X95.021 Y118.542 E6.43589
G1 X94.751 Y117.662 E6.46651
G1 X94.558 Y116.761 E6.49715
G1 X94.444 Y115.848 E6.52775
G1 X94.413 Y115.277 E6.54677
G1 X94.404 Y114.944 E6.55785
G1 X94.4 Y114.658 E6.56737
G1 X94.4 Y105.674 E6.86618
G1 X94.401 Y105.531 E6.87093
G1 X94.41 Y104.866 E6.89305
G1 X94.462 Y103.946 E6.9237
G1 X94.594 Y103.035 E6.95432
G1 X94.805 Y102.139 E6.98493
G1 X95.092 Y101.264 E7.01556
G1 X95.455 Y100.418 E7.04618
G1 X95.889 Y99.606 E7.0768
G1 X96.392 Y98.835 E7.10742
G1 X96.961 Y98.111 E7.13805
G1 X97.589 Y97.439 E7.16864
G0 F6000 X97.981 Y97.617
G1 F1200 X98.662 Y97.024 E7.19867
G1 X99.394 Y96.494 E7.22873
G1 X100.169 Y96.031 E7.25876
G1 X100.982 Y95.638 E7.28879
G1 X101.827 Y95.318 E7.31885
G1 X102.696 Y95.075 E7.34886
G1 X103.584 Y94.909 E7.3789
G1 X104.723 Y94.813 E7.41692
G1 X105.044 Y94.804 E7.4276
G1 X105.33 Y94.8 E7.43712
G1 X114.293 Y94.8 E7.73523
G1 X114.439 Y94.801 E7.74008
G1 X115.137 Y94.811 E7.7633
G1 X116.039 Y94.864 E7.79335
G1 X116.932 Y94.996 E7.82338
G1 X117.81 Y95.207 E7.85341
G1 X118.666 Y95.495 E7.88345
G1 X119.493 Y95.857 E7.91348
G1 X120.285 Y96.292 E7.94353
G1 X121.036 Y96.794 E7.97357
G1 X121.739 Y97.361 E8.00361
G1 X122.389 Y97.988 E8.03365
G1 X122.981 Y98.67 E8.06369
G1 X123.511 Y99.401 E8.09372
G1 X123.973 Y100.177 E8.12376
G1 X124.366 Y100.99 E8.15379
G1 X124.684 Y101.835 E8.18382
G1 X124.927 Y102.705 E8.21386
G1 X125.092 Y103.593 E8.2439
G1 X125.187 Y104.723 E8.28162
G1 X125.196 Y105.043 E8.29227
G1 X125.2 Y105.33 E8.30182
G1 X125.2 Y114.264 E8.59896
G1 X125.199 Y114.39 E8.60315
G1 X125.19 Y115.117 E8.62733
G1 X125.139 Y116.019 E8.65738
G1 X125.008 Y116.913 E8.68743
G1 X124.799 Y117.791 E8.71745
G1 X124.513 Y118.648 E8.7475
G1 X124.152 Y119.476 E8.77755
G1 X123.72 Y120.268 E8.80755
G1 X123.219 Y121.02 E8.83761
G1 X122.653 Y121.724 E8.86765
G1 X122.028 Y122.375 E8.89767
G1 X121.347 Y122.969 E8.92772
G1 X120.616 Y123.5 E8.95777
G1 X119.842 Y123.964 E8.98779
G1 X119.029 Y124.358 E9.01784
G1 X118.185 Y124.678 E9.04786
G1 X117.315 Y124.923 E9.07792
G1 X116.428 Y125.089 E9.10793
G1 X115.277 Y125.187 E9.14635
G1 X114.956 Y125.196 E9.15703
G1 X114.67 Y125.2 E9.16655
G1 X105.707 Y125.2 E9.46466
G1 X105.575 Y125.199 E9.46905
G1 X104.877 Y125.19 E9.49227
G1 X103.976 Y125.139 E9.52228
G1 X103.082 Y125.007 E9.55234
G1 X102.204 Y124.798 E9.58236
G1 X101.347 Y124.511 E9.61242
G1 X100.52 Y124.15 E9.64243
G1 X99.727 Y123.717 E9.67248
G1 X98.976 Y123.216 E9.70251
G1 X98.272 Y122.65 E9.73255
G1 X97.621 Y122.024 E9.76259
G1 X97.028 Y121.343 E9.79262
G1 X96.498 Y120.612 E9.82265
G1 X96.034 Y119.837 E9.8527
G1 X95.64 Y119.024 E9.88275
G1 X95.32 Y118.18 E9.91277
G1 X95.076 Y117.31 E9.94282
G1 X94.91 Y116.422 E9.97287
G1 X94.813 Y115.267 E10.01142
G1 X94.804 Y114.934 E10.0225
G1 X94.8 Y114.658 E10.03168
G1 X94.8 Y105.674 E10.33049
G1 X94.801 Y105.536 E10.33508
G1 X94.81 Y104.871 E10.3572
G1 X94.862 Y103.969 E10.38725
G1 X94.994 Y103.076 E10.41727
G1 X95.204 Y102.198 E10.4473
G1 X95.491 Y101.341 E10.47736
G1 X95.853 Y100.514 E10.50738
G1 X96.286 Y99.722 E10.53741
G1 X96.788 Y98.971 E10.56745
G1 X97.355 Y98.267 E10.59752
G1 X97.981 Y97.617 E10.62753
G1 F2700 E5.62753
;MESH:rectangular_prism_10mm_10mm_2mm.stl
G0 F6000 X105.414 Y104.335
G0 X105.414 Y105.414
G0 X106 Y114
;TYPE:WALL-INNER
G1 F2700 E10.62753
G1 F1200 X106 Y106 E10.89361
G1 X114 Y106 E11.15969
G1 X114 Y114 E11.42577
G1 X106 Y114 E11.69186
G0 F6000 X105.6 Y114.4
G1 F1200 X105.6 Y105.6 E11.98454
G1 X114.4 Y105.6 E12.27723
G1 X114.4 Y114.4 E12.56992
G1 X105.6 Y114.4 E12.86261
G0 F6000 X105.2 Y114.8
;TYPE:WALL-OUTER
G1 F1200 X105.2 Y105.2 E13.18191
G1 X114.8 Y105.2 E13.50121
G1 X114.8 Y114.8 E13.8205
G1 X105.2 Y114.8 E14.1398
G0 F6000 X105.47 Y114.53
G0 X106.11 Y113.61
G0 X106.39 Y113.61
;TYPE:SKIN
G1 F1200 X106.39 Y106.39 E14.37994
G1 X113.61 Y106.39 E14.62008
G1 X113.61 Y113.61 E14.86022
G1 X106.39 Y113.61 E15.10035
G0 F6000 X106.661 Y113.449
G1 F1200 X106.549 Y113.337 E15.10562
G0 F6000 X106.549 Y112.772
G1 F1200 X107.227 Y113.449 E15.13749
G0 F6000 X107.792 Y113.449
G1 F1200 X106.549 Y112.206 E15.19596
G0 F6000 X106.549 Y111.64
G1 F1200 X108.358 Y113.449 E15.28105
G0 F6000 X108.924 Y113.449
G1 F1200 X106.549 Y111.075 E15.39274
G0 F6000 X106.549 Y110.509
G1 F1200 X109.489 Y113.449 E15.53102
G0 F6000 X110.055 Y113.449
G1 F1200 X106.549 Y109.943 E15.69594
G0 F6000 X106.549 Y109.378
G1 F1200 X110.621 Y113.449 E15.88745
G0 F6000 X111.186 Y113.449
G1 F1200 X106.549 Y108.812 E16.10556
G0 F6000 X106.549 Y108.246
G1 F1200 X111.752 Y113.449 E16.35029
G0 F6000 X112.318 Y113.449
G1 F1200 X106.549 Y107.681 E16.62162
G0 F6000 X106.549 Y107.115
G1 F1200 X112.883 Y113.449 E16.91955
G0 F6000 X113.449 Y113.449
G1 F1200 X106.549 Y106.549 E17.24411
G0 F6000 X107.115 Y106.549
G1 F1200 X113.449 Y112.883 E17.54204
G0 F6000 X113.449 Y112.318
G1 F1200 X107.681 Y106.549 E17.81337
G0 F6000 X108.246 Y106.549
G1 F1200 X113.449 Y111.752 E18.05811
G0 F6000 X113.449 Y111.186
G1 F1200 X108.812 Y106.549 E18.27622
G0 F6000 X109.378 Y106.549
G1 F1200 X113.449 Y110.621 E18.46773
G0 F6000 X113.449 Y110.055
G1 F1200 X109.943 Y106.549 E18.63264
G0 F6000 X110.509 Y106.549
G1 F1200 X113.449 Y109.489 E18.77093
G0 F6000 X113.449 Y108.924
G1 F1200 X111.075 Y106.549 E18.88262
G0 F6000 X111.64 Y106.549
G1 F1200 X113.449 Y108.358 E18.96771
G0 F6000 X113.449 Y107.792
G1 F1200 X112.206 Y106.549 E19.02617
G0 F6000 X112.772 Y106.549
G1 F1200 X113.449 Y107.227 E19.05804
G0 F6000 X113.449 Y106.661
G1 F1200 X113.337 Y106.549 E19.06331
G0 F6000 X113.337 Y105.81
;MESH:NONMESH
G0 F300 X113.337 Y105.81 Z0.4
G0 F6000 X106.182 Y106.182
G0 X106 Y114
;TIME_ELAPSED:36.845611
;LAYER:1
M140 S0
M106 S85
;TYPE:WALL-INNER
;MESH:rectangular_prism_10mm_10mm_2mm.stl
G1 F1350 X106 Y106 E19.32939
G1 X114 Y106 E19.59547
G1 X114 Y114 E19.86155
G1 X106 Y114 E20.12763
G0 F7500 X105.6 Y114.4
G1 F1350 X105.6 Y105.6 E20.42032
G1 X114.4 Y105.6 E20.71301
G1 X114.4 Y114.4 E21.0057
G1 X105.6 Y114.4 E21.29839
G0 F7500 X105.2 Y114.8
;TYPE:WALL-OUTER
G1 F1350 X105.2 Y105.2 E21.61769
G1 X114.8 Y105.2 E21.93699
G1 X114.8 Y114.8 E22.25628
G1 X105.2 Y114.8 E22.57558
G0 F7500 X105.47 Y114.53
G0 X106.11 Y113.61
G0 X106.39 Y113.61
;TYPE:SKIN
G1 F1350 X106.39 Y106.39 E22.81572
G1 X113.61 Y106.39 E23.05586
G1 X113.61 Y113.61 E23.29599
G1 X106.39 Y113.61 E23.53613
G0 F7500 X106.11 Y113.61
G0 X106.11 Y106.713
G0 X106.549 Y106.713
G1 F1350 X106.713 Y106.549 E23.54385
G0 F7500 X107.279 Y106.549
G1 F1350 X106.549 Y107.279 E23.57818
G0 F7500 X106.549 Y107.845
G1 F1350 X107.845 Y106.549 E23.63914
G0 F7500 X108.41 Y106.549
G1 F1350 X106.549 Y108.41 E23.72668
G0 F7500 X106.549 Y108.976
G1 F1350 X108.976 Y106.549 E23.84084
G0 F7500 X109.542 Y106.549
G1 F1350 X106.549 Y109.542 E23.98162
G0 F7500 X106.549 Y110.107
G1 F1350 X110.107 Y106.549 E24.14898
G0 F7500 X110.673 Y106.549
G1 F1350 X106.549 Y110.673 E24.34296
G0 F7500 X106.549 Y111.239
G1 F1350 X111.239 Y106.549 E24.56356
G0 F7500 X111.804 Y106.549
G1 F1350 X106.549 Y111.804 E24.81074
G0 F7500 X106.549 Y112.37
G1 F1350 X112.37 Y106.549 E25.08454
G0 F7500 X112.936 Y106.549
G1 F1350 X106.549 Y112.936 E25.38497
G0 F7500 X106.602 Y113.449
G1 F1350 X113.449 Y106.602 E25.70703
G0 F7500 X113.449 Y107.167
G1 F1350 X107.167 Y113.449 E26.00251
G0 F7500 X107.733 Y113.449
G1 F1350 X113.449 Y107.733 E26.27138
G0 F7500 X113.449 Y108.299
G1 F1350 X108.299 Y113.449 E26.51362
G0 F7500 X108.864 Y113.449
G1 F1350 X113.449 Y108.864 E26.72928
G0 F7500 X113.449 Y109.43
G1 F1350 X109.43 Y113.449 E26.91832
G0 F7500 X109.996 Y113.449
G1 F1350 X113.449 Y109.996 E27.08074
G0 F7500 X113.449 Y110.561
G1 F1350 X110.561 Y113.449 E27.21658
G0 F7500 X111.127 Y113.449
G1 F1350 X113.449 Y111.127 E27.3258
G0 F7500 X113.449 Y111.693
G1 F1350 X111.693 Y113.449 E27.4084
G0 F7500 X112.258 Y113.449
G1 F1350 X113.449 Y112.258 E27.46442
G0 F7500 X113.449 Y112.824
G1 F1350 X112.824 Y113.449 E27.49382
G0 F7500 X113.39 Y113.449
G1 F1350 X113.449 Y113.39 E27.4966
G0 F7500 X114.19 Y113.39
;MESH:NONMESH
G0 F300 X114.19 Y113.39 Z0.6
G0 F7500 X113.818 Y113.818
G0 X106 Y114
;TIME_ELAPSED:51.153149
;LAYER:2
M106 S170
;TYPE:WALL-INNER
;MESH:rectangular_prism_10mm_10mm_2mm.stl
G1 F1500 X106 Y106 E27.76268
G1 X114 Y106 E28.02876
G1 X114 Y114 E28.29484
G1 X106 Y114 E28.56092
G0 F9000 X105.6 Y114.4
G1 F1500 X105.6 Y105.6 E28.85361
G1 X114.4 Y105.6 E29.1463
G1 X114.4 Y114.4 E29.43899
G1 X105.6 Y114.4 E29.73168
G0 F9000 X105.2 Y114.8
;TYPE:WALL-OUTER
G1 F1500 X105.2 Y105.2 E30.05097
G1 X114.8 Y105.2 E30.37027
G1 X114.8 Y114.8 E30.68957
G1 X105.2 Y114.8 E31.00887
G0 F9000 X105.47 Y114.53
G0 X106.11 Y113.61
G0 X106.39 Y113.61
;TYPE:SKIN
G1 F1500 X106.39 Y106.39 E31.249
G1 X113.61 Y106.39 E31.48914
G1 X113.61 Y113.61 E31.72928
G1 X106.39 Y113.61 E31.96942
G0 F9000 X106.661 Y113.449
G1 F1500 X106.549 Y113.337 E31.97469
G0 F9000 X106.549 Y112.772
G1 F1500 X107.227 Y113.449 E32.00655
G0 F9000 X107.792 Y113.449
G1 F1500 X106.549 Y112.206 E32.06502
G0 F9000 X106.549 Y111.64
G1 F1500 X108.358 Y113.449 E32.15011
G0 F9000 X108.924 Y113.449
G1 F1500 X106.549 Y111.075 E32.2618
G0 F9000 X106.549 Y110.509
G1 F1500 X109.489 Y113.449 E32.40009
G0 F9000 X110.055 Y113.449
G1 F1500 X106.549 Y109.943 E32.565
G0 F9000 X106.549 Y109.378
G1 F1500 X110.621 Y113.449 E32.75651
G0 F9000 X111.186 Y113.449
G1 F1500 X106.549 Y108.812 E32.97462
G0 F9000 X106.549 Y108.246
G1 F1500 X111.752 Y113.449 E33.21935
G0 F9000 X112.318 Y113.449
G1 F1500 X106.549 Y107.681 E33.49069
G0 F9000 X106.549 Y107.115
G1 F1500 X112.883 Y113.449 E33.78862
G0 F9000 X113.449 Y113.449
G1 F1500 X106.549 Y106.549 E34.11317
G0 F9000 X107.115 Y106.549
G1 F1500 X113.449 Y112.883 E34.41111
G0 F9000 X113.449 Y112.318
G1 F1500 X107.681 Y106.549 E34.68244
G0 F9000 X108.246 Y106.549
G1 F1500 X113.449 Y111.752 E34.92717
G0 F9000 X113.449 Y111.186
G1 F1500 X108.812 Y106.549 E35.14528
G0 F9000 X109.378 Y106.549
G1 F1500 X113.449 Y110.621 E35.33679
G0 F9000 X113.449 Y110.055
G1 F1500 X109.943 Y106.549 E35.5017
G0 F9000 X110.509 Y106.549
G1 F1500 X113.449 Y109.489 E35.63999
G0 F9000 X113.449 Y108.924
G1 F1500 X111.075 Y106.549 E35.75168
G0 F9000 X111.64 Y106.549
G1 F1500 X113.449 Y108.358 E35.83677
G0 F9000 X113.449 Y107.792
G1 F1500 X112.206 Y106.549 E35.89524
G0 F9000 X112.772 Y106.549
G1 F1500 X113.449 Y107.227 E35.92711
